Origami/64x64/apps/meld.svg

<svg width="64" height="64" version="1" xmlns="http://www.w3.org/2000/svg">
 <path d="m4.0000004 56.200069v1.999971c0 1.549978 1.2495821 2.79996 2.80076 2.79996h50.39928c1.549977 0 2.79996-1.249982 2.79996-2.79996v-1.999971c0 1.549978-1.249983 2.79996-2.79996 2.79996h-50.39928c-1.5503779 0-2.79996-1.249982-2.79996-2.79996z" style="opacity:.2"/>
 <rect transform="matrix(0,-1,-1,0,0,0)" x="-60" y="-60" width="55.999" height="55.999" rx="2.8" ry="2.8" style="fill:#94c3e4"/>
 <path d="m6.7999604 4.0008297c-1.5511779 0-2.79996 1.2487821-2.79996 2.79996v42.027399c0.6005114 0.460613 1.2163626 0.910907 1.8566135 1.337081 5.3845231 3.584348 11.819431 5.948914 18.262539 5.854116 6.445708-0.09464 12.899615-2.768361 18.013742-9.157269 2.718561-3.396152 3.125555-7.467293 2.250368-11.008443-0.875108-3.541149-2.958158-6.620905-5.454922-8.055285h-0.04922c-2.036771-0.943786-4.074142-0.65067-5.553521 0.150378-1.479239 0.801149-2.480964 2.034371-2.80276 3.251154l-0.300776 1.000765c-0.229896-0.0126-0.477193-0.05896-0.69999-0.09844-1.141863-0.202437-1.986291-0.67667-2.250367-1.553098-0.339396-2.691161 0.360614-4.89553 1.749975-6.554106 1.408339-1.681356 3.546549-2.82136 6.105712-3.100756 4.343738-0.474273 8.184083 1.444199 11.106841 4.552735 2.922759 3.108536 4.850331 7.429894 5.203526 11.558035 0.751989 8.791874-4.251939 17.671747-11.345838 22.995671h17.107756c1.551977 0 2.79996-1.247982 2.79996-2.79996v-41.9774c-0.599991-0.460791-1.215982-0.908385-1.855973-1.334379-5.385923-3.584348-11.819831-5.9489146-18.263739-5.854316-6.445908 0.094599-12.899815 2.76576-18.013742 9.154469-2.718161 3.396152-3.124955 7.468093-2.249968 11.008043 0.875108 3.541149 2.958158 6.571706 5.454922 8.006085l0.04922 0.04922c2.036771 0.943787 4.074142 0.653391 5.553521-0.147657 1.479239-0.801149 2.480964-2.037171 2.80276-3.253954l0.300776-1.049985c0.240716 0.0028 0.464253 0.0182 0.69999 0.04922 0.572111 0.07504 1.113084 0.212477 1.501158 0.451174 0.354115 0.217817 0.610871 0.477413 0.749209 0.850388 0.0056 0.0126-0.0056 0.03634 0 0.04922 0.71539 5.449322-2.77636 9.351866-7.855687 9.906458-4.343939 0.475991-8.183884-1.393983-11.107042-4.501938-2.922759-3.107956-4.850331-7.429894-5.203326-11.557835-0.754389-8.819074 4.255739-17.726946 11.372437-23.04567h-17.133755z" style="fill-rule:evenodd;fill:#e45f0a"/>
 <path d="m6.8007812 4c-1.5511778 0-2.8007812 1.2496034-2.8007812 2.8007812v1.0019532c0-1.5511778 1.2496034-2.8007813 2.8007812-2.8007813h50.398438c1.549977 0 2.800781 1.2496035 2.800781 2.8007813v-1.0019532c0-1.5511777-1.250804-2.8007812-2.800781-2.8007812h-50.398438z" style="fill:#ffffff;opacity:.2"/>
</svg>

<svg xmlns="http://www.w3.org/2000/svg" width="64" height="64" version="1">
 <path style="opacity:0.2" d="m 4.0000004,56.200069 0,1.999971 c 0,1.549978 1.2495821,2.79996 2.80076,2.79996 L 57.20004,61 C 58.750017,61 60,59.750018 60,58.20004 l 0,-1.999971 c 0,1.549978 -1.249983,2.79996 -2.79996,2.79996 l -50.3992796,0 c -1.5503779,0 -2.79996,-1.249982 -2.79996,-2.79996 z"/>
 <rect style="fill:#94c3e4" width="55.999" height="55.999" x="-60" y="-60" rx="2.8" ry="2.8" transform="matrix(0,-1,-1,0,0,0)"/>
 <path style="fill:#e45f0a;fill-rule:evenodd" d="m 6.7999604,4.0008297 c -1.5511779,0 -2.79996,1.2487821 -2.79996,2.79996 l 0,42.0273993 c 0.6005114,0.460613 1.2163626,0.910907 1.8566135,1.337081 5.3845231,3.584348 11.8194311,5.948914 18.2625391,5.854116 6.445708,-0.09464 12.899615,-2.768361 18.013742,-9.157269 2.718561,-3.396152 3.125555,-7.467293 2.250368,-11.008443 -0.875108,-3.541149 -2.958158,-6.620905 -5.454922,-8.055285 l -0.04922,0 c -2.036771,-0.943786 -4.074142,-0.65067 -5.553521,0.150378 -1.479239,0.801149 -2.480964,2.034371 -2.80276,3.251154 l -0.300776,1.000765 c -0.229896,-0.0126 -0.477193,-0.05896 -0.69999,-0.09844 -1.141863,-0.202437 -1.986291,-0.67667 -2.250367,-1.553098 -0.339396,-2.691161 0.360614,-4.89553 1.749975,-6.554106 1.408339,-1.681356 3.546549,-2.82136 6.105712,-3.100756 4.343738,-0.474273 8.184083,1.444199 11.106841,4.552735 2.922759,3.108536 4.850331,7.429894 5.203526,11.558035 0.751989,8.791874 -4.251939,17.671747 -11.345838,22.995671 l 17.107756,0 c 1.551977,0 2.79996,-1.247982 2.79996,-2.79996 l 0,-41.9774 C 59.399648,14.762576 58.783657,14.314982 58.143666,13.888988 52.757743,10.30464 46.323835,7.9400734 39.879927,8.034672 c -6.445908,0.094599 -12.899815,2.76576 -18.013742,9.154469 -2.718161,3.396152 -3.124955,7.468093 -2.249968,11.008043 0.875108,3.541149 2.958158,6.571706 5.454922,8.006085 l 0.04922,0.04922 c 2.036771,0.943787 4.074142,0.653391 5.553521,-0.147657 1.479239,-0.801149 2.480964,-2.037171 2.80276,-3.253954 l 0.300776,-1.049985 c 0.240716,0.0028 0.464253,0.0182 0.69999,0.04922 0.572111,0.07504 1.113084,0.212477 1.501158,0.451174 0.354115,0.217817 0.610871,0.477413 0.749209,0.850388 0.0056,0.0126 -0.0056,0.03634 0,0.04922 0.71539,5.449322 -2.77636,9.351866 -7.855687,9.906458 C 24.528147,43.583344 20.688202,41.71337 17.765044,38.605415 14.842285,35.497459 12.914713,31.175521 12.561718,27.04758 11.807329,18.228506 16.817457,9.3206336 23.934155,4.0019097 l -17.1337546,0 z"/>
 <path style="opacity:0.2;fill:#ffffff" d="M 6.8007812 4 C 5.2496034 4 4 5.2496034 4 6.8007812 L 4 7.8027344 C 4 6.2515566 5.2496034 5.0019531 6.8007812 5.0019531 L 57.199219 5.0019531 C 58.749196 5.0019531 60 6.2515566 60 7.8027344 L 60 6.8007812 C 60 5.2496035 58.749196 4 57.199219 4 L 6.8007812 4 z"/>
</svg>
